X:8864
T:La Cayrolaise
M:3/8
L:1/8
K:C
e2f|e/f/g/a/g|e2f|d/e/c2|\
e2f|e/f/g/a/g|e2f|d3:|
|:e2c|A/B/cA|d2f|ec2|\
e2c|A/B/cA|ded|c3:|
